X:7
M:2/4
L:1/8
K:Bb
|: B>df>d | b>dc>B | A>Bc>A | a>cB>A | G>AB>G | g>ed>c | B>G B/A/G/^F | G4 :|
|: f>d (3dcB | b>a (3agf | e>d (3dcB | A>GF>E | DFBd | Egce | cAFA | B4 :|

